X:1
T:Viva la face, viva l'amor 
T:B  Major                     George Frideric Handel, 1736 
T: 
T:From La caccia in Etolia, 1715
%%score [ ( 1 2 ) ( 3 4 ) ]
L:1/8
Q:1/4=120
M:4/4
K:Bb
V:1 treble nm="S.\nA." snm="S.\nA."
V:2 treble 
V:3 bass nm="T.\nB." snm="T.\nB."
V:4 bass 
V:1
 d2 e d |: c2 f2 B2 A B | c4 e2 f e | d2 cB c4 |1 B4 d2 e d :|2 B4 d2 d c || B2 B2 B2 c2 | %7
 d4 d2 d e | f2 f2 e2 d2 | c4 d2 e d | c2 f2 B2 A B | c4 e2 f e | d2 cB c4 | B4 e2 d c | f2 B2 c4 | %15
 B8 |] %16
V:2
 F2 F F |: F2 F2 =E2 F E | F4 E2 E E | F2 GE C4 |1 D4 F2 F F :|2 D4 D2 E F || G2 G2 F2 E2 | %7
w: Vi- va la|fa- ce, vi- va l'a-|mor! Vi- va, sù,|fe- steg- * gia-|te! Vi- va la|–te! Ren- de- te a|sposi un al- to o-|
 D4 D2 D C | B,2 B,2 C2 F2 | F4 F2 F F | F2 F2 =E2 F E | F4 E2 E E | F2 GE C4 | D4 E2 F G | %14
w: nor. Vi- va la|pa- ce ne' due|cor! Vi- va la|fa- ce, vi- va l'a-|mor! Vi- va, sù,|fe- steg- * gia-|te! Vi- va, sù,|
 B,2 B,2 (A,2 F2) | F8 |] %16
w: fe- seg- gia- *|te!|
V:3
 B,2 A, B, |: C2 D2 B,2 C B, | A,4 A,2 G, A, | B,2 EG, A,4 |1 B,4 B,2 A, B, :|2 B,4 B,2 B, A, || %6
 G,2 G,2 G,2 A,2 | B,4 B,2 B, C | D2 F,2 G,A, B,2 | A,4 B,2 A, B, | C2 D2 B,2 C B, | %11
 A,4 A,2 G, A, | B,2 EG, A,4 | B,4 B,2 A, G, | F,2 E2 C4 | D8 |] %16
V:4
 B,,2 C, B,, |: A,,2 D,2 G,2 A, G, | F,4 C,2 B,, C, | D,2 G,2 F,4 |1 B,,4 B,,2 C, B,, :|2 %5
 B,,4 B,,2 C, D, || E,2 E,2 D,2 C,2 | G,4 G,2 F, E, | D,2 D,2 C,2 B,,2 | F,4 B,,2 C, B,, | %10
 A,,2 D,2 G,2 A, G, | F,4 C,2 B,, C, | D,2 G,2 F,4 | B,4 G,2 F, E, | D,2 G,2 F,4 | B,,8 |] %16

